X:1
T:Illumination, 86.86.88
T:Illumination, 86.86.88
T:John Bacchus Dykes (1823-1876)
T:Public Domain Courtesy of the Cyber Hymnal™
C:John Bacchus Dykes (1823-1876)
Z:Public Domain
Z:Courtesy of the Cyber Hymnal™
%%score ( 1 2 ) ( 3 4 )
L:1/8
Q:1/4=115
M:3/4
K:Eb
V:1 treble 
V:2 treble 
V:3 bass 
V:4 bass 
V:1
 E2 [EG]2 [FB]2 | [Ee]4 [Ec]2 | B4 [A,D]2 | [G,E]6 | [A,A]2 [EA]2 [FA]2 | G4 [EB]2 | [DF]6 | %7
 G2 [FG]2 [Ec]2 | [EB]4 [E=A]2 | B4 [Cc]2 | [Fd]4 [Ad]2 | [Ge]4 [Gc]2 | B4 [E=A]2 | [DB]6 | %14
 [B,B]2 [DA]2 [EG]2 | [EG]4 [DF]2 | G2 F2 E2 | (E4 D2) | [B,E]2 [EG]2 [EB]2 | [Ee]4 [Ec]2 | %20
 B4 z2 D2 | [B,E]6 |] %22
V:2
 E2 x4 | x6 | (E2 B,2) x2 | x6 | x6 | (G2 F2) x2 | x6 | G2 x4 | x6 | (E2 D2) x2 | x6 | x6 | %12
 (F2 D2) x2 | x6 | x6 | x6 | (ED C4) | B,6 | x6 | x6 | E2 B,4 x2 | x6 |] %22
V:3
 [E,G,]2 [E,B,]2 [D,F,]2 | [C,G,]4 [A,,A,]2 | [B,,G,]4 [B,,F,]2 | [C,E,]6 | %4
 [C,E,]2 [C,C]2 [D,B,]2 | [E,B,]4 [G,,B,]2 | [B,,B,]6 | [E,B,]2 [D,=B,]2 [C,C]2 | [F,C]4 [F,C]2 | %9
 [G,B,]4 (FE) | [B,D]4 [B,F]2 | [E,E]4 [E,E]2 | (D2 B,2) [F,C]2 | [B,D]6 | [G,E]2 [F,A,]2 [E,B,]2 | %15
 [B,,B,]4 [B,,B,]2 | ([E,B,]2 [A,,A,]2) [=A,,G,]2 | (G,4 F,2) | [G,B,]2 [E,B,]2 [_D,G,]2 | %19
 ([C,A,]2 [B,,G,]2) [A,,F,]2 | [B,,G,]4 [B,,F,]2 x2 | [E,G,]6 |] %22
V:4
 x6 | x6 | x6 | x6 | x6 | x6 | x6 | x6 | x6 | x4 =A,2 | x6 | x6 | F,4 x2 | x6 | x6 | x6 | x6 | %17
 B,,6 | x6 | x6 | x8 | x6 |] %22

